icons/bag-check.svg

<svg xmlns="http://www.w3.org/2000/svg" viewBox="0 0 24 24" fill="currentColor">
  <path d="M12 3.75c-1.7858 0-3.25 1.46421-3.25 3.25v.25h6.5V7c0-.87184-.3989-1.68818-.9803-2.26966C13.6882 4.14887 12.8718 3.75 12 3.75ZM7.25 7v.30946c-2.26066.36187-4 2.33139-4 4.69054v6c0 1.9979 1.61963 3.75 3.75 3.75h10c2.1142 0 3.75-1.6358 3.75-3.75v-6c0-2.35915-1.7393-4.32867-4-4.69054V7c0-1.32816-.6012-2.51179-1.4197-3.33032C14.5118 2.85116 13.3282 2.25 12 2.25 9.38579 2.25 7.25 4.38579 7.25 7ZM8 8.75c-1.78579 0-3.25 1.4642-3.25 3.25v6c0 1.2021.98037 2.25 2.25 2.25h10c1.2858 0 2.25-.9642 2.25-2.25v-6c0-1.7858-1.4642-3.25-3.25-3.25H8Zm7.5238 4.7868c.2965-.2892.3023-.7641.0131-1.0605-.2893-.2965-.7641-.3024-1.0606-.0131l-3.7197 3.6289L9.60004 14.55c-.24852-.3314-.71863-.3985-1.05-.15-.33137.2485-.39852.7186-.15 1.05l1.53198 2.0426.03769.0377c.22249.2225.50649.2947.73039.2947.2223 0 .5041-.0712.7259-.2903l4.0978-3.9979Z"/>
</svg>

<svg width="24" height="24" viewBox="0 0 24 24" fill="none" xmlns="http://www.w3.org/2000/svg">
<path fill-rule="evenodd" clip-rule="evenodd" d="M12 3.75C10.2142 3.75 8.75 5.21421 8.75 7V7.25H15.25V7C15.25 6.12816 14.8511 5.31182 14.2697 4.73034C13.6882 4.14887 12.8718 3.75 12 3.75ZM7.25 7V7.30946C4.98934 7.67133 3.25 9.64085 3.25 12V18C3.25 19.9979 4.86963 21.75 7 21.75H17C19.1142 21.75 20.75 20.1142 20.75 18V12C20.75 9.64085 19.0107 7.67133 16.75 7.30946V7C16.75 5.67184 16.1488 4.48821 15.3303 3.66968C14.5118 2.85116 13.3282 2.25 12 2.25C9.38579 2.25 7.25 4.38579 7.25 7ZM8 8.75C6.21421 8.75 4.75 10.2142 4.75 12V18C4.75 19.2021 5.73037 20.25 7 20.25H17C18.2858 20.25 19.25 19.2858 19.25 18V12C19.25 10.2142 17.7858 8.75 16 8.75H8ZM15.5238 13.5368C15.8203 13.2476 15.8261 12.7727 15.5369 12.4763C15.2476 12.1798 14.7728 12.1739 14.4763 12.4632L10.7566 16.0921L9.60004 14.55C9.35152 14.2186 8.88141 14.1515 8.55004 14.4C8.21867 14.6485 8.15152 15.1186 8.40004 15.45L9.93202 17.4926L9.96971 17.5303C10.1922 17.7528 10.4762 17.825 10.7001 17.825C10.9224 17.825 11.2042 17.7538 11.426 17.5347L15.5238 13.5368Z" fill="black"/>
</svg>
